X:1
T:Comrades of the Cross
T:Comrades of the Cross
T:Isaac Hickman Meredith
T:Frederick Watson Hannan, 1904
T:Public Domain Courtesy of the Cyber Hymnal™
T:Public Domain Courtesy of the Cyber Hymnal™
C:Isaac Hickman Meredith
Z:Public Domain
Z:Courtesy of the Cyber Hymnal™
%%score ( 1 2 ) ( 3 4 )
L:1/8
Q:1/4=105
M:4/4
K:G
V:1 treble 
V:2 treble 
V:3 bass 
V:4 bass 
V:1
 [B,DBd]2 [B,DBd]2 [B,DBd]2 [B,DBd]2 | [DGBd]4 [B,DGB]4 | [CEG]2 [CEG]2 [C_EA]2 [CEG]2 | %3
w: 1.~We are loy- al|com- rades,|com- rades of the|
w: 2.~Com- rades, ne- ver|fal- ter,|lift the stand- ard|
w: 3.~On- ward, up- ward,|com- rades,|ral- ly for the|
w: 4.~Com- rades, who re-|ceive Him,|Mas- ter of us|
 [B,DGB]6 z2 | [CFAd]2 [CFA]2 [CF^G]2 [CFA]2 | [DGB]4 [DG]4 | [DF]2 [^CE]2 [CA]2 [CB]2 | [DA]6 z2 | %8
w: cross,|March- ing on to|vic- tory,|count- ing all but|dross,|
w: high,|Bear it brave- ly|for- ward,|let its col- ors|fly;|
w: fight,|Charge the com- ing|le- gions,|seize the sun- lit|height;|
w: all,|Trust, con- fess, o-|bey Him,|hear His gra- cious|call;|
 D2 [DF]2 [FB]2 [FA]2 | [DG]4 D4 | [DE]2 [D^G]2 [Dc]2 [DB]2 | [CA]6 z2 | [GA]2 [GA]2 [GB]2 [G^c]2 | %13
w: For our great com-|mand- er,|who will lead us|on,|Till the foe is|
w: Ev- ery call to|du- ty,|heed with- out de-|lay,|Brav- ing ev- ery|
w: Hold it for your|cap- tain,|ne- ver call re-|treat;|Soon we’ll lay our|
w: Fol- low Him to|Cal- vary,|bear its shame and|loss;|We are loy- al|
 [FAd]4 [A,DF]4 | [^CGA]2 [CGA]2 [EGB]2 [EG^c]2 | [DFAd]8 ||"^Refrain" [Gd]4 [DG]4 | %17
w: van- quished|and the vic- tory|won.||
w: dan- ger,|hast- en to o-|bey.|For- ward,|
w: tro- phies|at the Mas- ter’s|feet.||
w: com- rades,|com- rades of the|cross.||
 FEFG [DA]2 D2 | [Dd]2 [DG]2 [DF]2 [DG]2 | A8 | [DB]2 [GB]2 [Fc]2 [G^c]2 [Gd]4 !fermata![Ge]4 | %21
w: ||||
w: for- ward, then, ye com- rades,|Loy- al, brave and|strong,|Christ is our com- mand- er,|
w: ||||
w: ||||
"^riten." [Gd]2 [GB]2 [FA]3 [DG] | [DG]6 z2 |] x8 |] %24
w: |||
w: Vic- tory is our|song.||
w: |||
w: |||
V:2
 x8 | x8 | x8 | x8 | x8 | x8 | x8 | x8 | D2 x6 | x4 D4 | x8 | x8 | x8 | x8 | x8 | x8 || x8 | %17
 D2 D2 x D2 x | x8 | (D2 ^C2 D4) | x16 | x8 | x8 |] x8 |] %24
V:3
 [G,,G,]2 [D,,D,]2 [G,,G,]2 [D,,D,]2 | ([G,,G,]2 [D,,D,]2) ([G,,G,]2 [D,,D,]2) | %2
w: ~ ~ ~ ~|~ * ~ *|
 [C,,C,]2 [C,,C,]2 [C,,C,]2 [C,,C,]2 | ([G,,,G,,]2 [D,,,D,,]2 [G,,,G,,]2 [B,,,B,,]2) | %4
w: ~ ~ ~ ~|~ * * *|
 [D,,D,]2 [D,,D,]2 [D,,D,]2 [D,,D,]2 | ([G,,G,]2 [A,,A,]2) ([B,,B,]2 [_B,,_B,]2) | %6
w: ~ ~ ~ ~|~ * ~ *|
 [A,,A,]2 [A,,G,]2 [A,,G,]2 [A,,G,]2 | F,6 E,2 | [D,F,]2 [D,A,]2 [D,D]2 [D,C]2 | B,4 B,4 | %10
w: ~ ~ ~ ~|~ ~|* ~ ~ ~|~ ~|
 [E,^G,]2 [E,G,]2 [E,G,]2 [E,G,]2 | ([A,,A,]2 [E,,E,]2 [A,,A,]2 [E,,E,]2) | %12
w: ~ ~ ~ ~|~ * * *|
 [A,^C]2 [A,C]2 [A,D]2 [A,E]2 | ([D,D]2 [A,,A,]2) ([F,,F,]2 [D,,D,]2) | %14
w: ~ ~ ~ ~|~ * ~ *|
 [A,,A,]2 [A,,A,]2 [A,,A,]2 [A,,A,]2 | (A,4 C4) || [G,B,]2 [D,B,]2 [G,B,]2 [D,B,]2 | %17
w: ~ ~ ~ ~|~ *|For- ward, for- ward,|
 [A,C]2 [D,C]2 [F,C]2 [D,C]2 | [G,B,]2 [G,B,]2 [A,C]2 [G,B,]2 | [F,A,]2 [E,G,]2 [D,F,]4 | %20
w: then, ye com- rades,|~ ~ ~ ~|~ and strong,|
 G,2 [G,D]2 [A,D]2 [^A,E]2 x8 | [B,D]4 C4 | [D,B,]2 [D,D]2 [D,C]3 [G,B,] |] [G,B,]6 z2 |] %24
w: ||||
V:4
 x8 | x8 | x8 | x8 | x8 | x8 | x8 | D,2 A,,2 D,2 x2 | x8 | (G,2 D,2) (G,2 F,2) | x8 | x8 | x8 | %13
 x8 | x8 | D,8 || x8 | x8 | x8 | x8 | G,2 x14 | x4 C4 | x8 |] x8 |] %24

